X:0122
T:Tom Tullus's Hornpipe.
M:2/4
L:1/16
Q:1/4=96
I: :: ::
Z:Jack Campin * www.campin.me.uk * 2009
K:G
(Bc)|(dc)(BA) (Ggfg) |Te4       d4  |(cd)(cB) (AB)(AG)|TF4   E4    |
     (DE)(FG)  A2B2  |(c3d/e/)  d2c2| BAGA     D2F2   | G6        :|
 d2 | g2(bg)   e2(ag)|Tf4       d4  | g2bg     e2ag   |Tf4   d2(ef)|
      gddd     gddd  | gdgd     gddd| g3f     (ed)(cB)| ABAG F3E   |
      DEFG     A2B2  |Tc3(d/e/) d2c2| BAGA     D2F2   | G6        |]

